!!!OTL: 89d. Graf und Nonne.
!!!ARE: Europa, Mitteleuropa, Deutschland, Kreis Wetzlar; Neuwied
!!!SCT: E0089E
!!!TXL: @@DE
!!!YEM: Copyright 1995, estate of Helmut Schaffrath.
**kern	**text
*ICvox	*
*M3/4	*
*k[b-]	*
*F:	*
!LO:TX:a:t=Mäßig langſam.	!
!LO:TX:a:t=Aus Daubhauſen und Stockhauſen (Kr. Wetʒlar) u. Gönnersdorf bei Neuwied. (K. Becker Nr. 7a.)	!
{4c	Jch
=1	=1
4f	ſtand
4cc	auf
8a	ho-
8f	-hen
=2	=2
4g	Ber-
4b-}	-gen,
{(8cc	ſah
8b-)	.
=3	=3
4a	in
4a	den
8cc	tie-
8a	-fen
=4	=4
4g	Rhein;
4r}	.
{8gL	ein
8aJ	.
=5	=5
8b-L	Schiff-
8ddJ	.
4dd	-lein
8cc	ſah
8b-	ich
=6	=6
8aL	fah-
8ccJ	.
4cc}	-ren,
{4a	drei
=7	=7
4g	Rit-
4cc	-ter
8b-	ſa-
8cc	-ßen
=8	=8
4a	drein.
4r}	.
{8gL	ein
8aJ	.
=9	=9
8b-L	Schiff-
8ddJ	.
4dd	-lein
8cc	ſah
8b-	ich
=10	=10
8aL	fah-
8ccJ	.
4cc}	-ren,
{4a	drei
=11	=11
4g	Rit-
4cc	-ter
8b-	ſa-
8cc	-ßen
=12	=12
4a	drein.
4r}	.
==	==
!!!AGN: erzaehlendes Volks - Lied, Sage, Liebe, Leid, Ballade ?
!!!ONB: ESAC (Essen Associative Code) Database: ERK1
!!!AMT: simple triple
!!!AIN: vox
!!!EED: Helmut Schaffrath
!!!EEV: 1.0
!!!GTL: Liebesgeschichten mit tragischem Schluss
!!!URL-scan: https://rosdok.uni-rostock.de/mcrviewer/recordIdentifier/rosdok_ppn745146120/iview2/phys_0382.iview2?x=-422.27491384562836&y=2178.6185473110527&scale=0.554360769283424&rotation=0&layout=singlePageLayout
!!!ENC: Anna Maria Matuszewska
!!!EEV: 2024/11/28
*-	*-
